X:163
T: My Ain Kind Dearie
N: O'Farrell's Pocket Companion v.2 (Sky ed. p.83)
N: "Scotch"
M: 4/4
L: 1/8
R: strathspey
Q: 180
K: G
G/A/|BDD>E G>AGB|A>B c/B/A/G/ BEEB/A/|BDD>E G>AGg|e>d e/f/g/d/ BGG :|
d|e/d/e/f/ g>B c/B/c/d/ e>A|A/c/B/d/ c/B/A/G/ BEEB/A/|
BDD>E G>AGg|e>d e/f/g/d/ BGG :|
B/A/|GDD>E GDB>G|A>B c/B/A/G/ BEEB/A/|GDDe dGBG|g/f/e/d/ c/B/A/d/ BGG :|
d|g/d/B/d/ e/d/B/d/ g/d/B/d/ e/g/f/a/|g/f/e/d/ c/B/A/G/ BEEB/A/|
BDD>E G>AGg|e>d e/f/g/d/ BGG :|
